X:71
T: Cinege gágu
O: Trunk (Bákó) 1930
Q: 1/4=160
M:2/4
L:1/4
K:F
(3:2:3 c/c/c/ c/A/ | B/G/ A | 
(3:2:3 c/c/c/ c/A/ | B/G/ A | 
c/c/c/A/ | B/G/F | 
c/c/c/A/ | B/G/F | 

